!!!OTL: Kriegers Morgenlied. / Nach voriger Singweise.
!!!OTL-incipit:ERHEBT EUCH VON DER ERDE
!!!COM: Gross
!!!ARE: Europa, Mitteleuropa, Deutschland
!!!SCT: F0384
!!!TXL: @@DE
!!!YEM: Copyright 1995, estate of Helmut Schaffrath.
**kern	**text
*ICvox	*
*clefG2	*
*M4/4	*
*met(c)	*
*k[b-e-a-]	*
*E-:	*
!LO:TX:a:t=Mäßig.	!
!LO:TX:a:t=P:only the highest voice encoded:problem	!
{4b-/	Er-
=1	=1
4b-/	-hebt
4g	euch
4ee-	von
4b-/	der
=2	=2
2cc/	Er-
4b-/}	-de,
{4b-/	ihr
=3	=3
4gg	Schläfer
4ee-	.
4b-/	aus
8ee-L	der
8ggJ	.
=4	=4
2ff/	Ruh'!
4r}	.
{4b-/	Schon
=5	=5
4b-	wiehern
4g	.
4ee-	uns
4b-	die
=6	=6
2cc/	Pfer-
4b-/}	-de
{4b-/	den
=7	=7
4gg	gu-
4ee-	-ten
4b-/	Mor-
8ee-L	-gen
8ggJ	.
=8	=8
2ff	ʒu!
4r}	.
{4ff/	Die
=9	=9
4.ff/	lie-
8dd/	-ben
4b-/	Waffen
4ff/	.
=10	=10
2gg	glän-
4ee-}	-ʒen
{4ee-	ſo
=11	=11
4ff	hell
4gg	im
4aa-	Morgen-
4gg	.
=12	=12
2ff	-roth,
4r}	.
{4ff	man
=13	=13
4gg	träumt
4ff	von
4ee-	Sieges-
4dd/	.
=14	=14
4cc/	-kränʒen,
8aa-}	.
{8aa-	man
4gg	denkt
4ff	auch
=15	=15
2ee-	an
2dd	den
=16	=16
2ee-/	Tod!
4r}	.
==	==
!!!AGN: Vaterlands -, Heimat - Lied, nationalistisch, Krieg
!!!ONB: ESAC (Essen Associative Code) Database: FINK
!!!AMT: simple quadruple
!!!AIN: vox
!!!EED: Helmut Schaffrath
!!!EEV: 1.0
!!!GTL: Vaterlands- und Heimathslieder
!!Text: M. v. Schenkendorf
!!!source: Musikalischer Hausschatz der Deutschen. Eine Sammlung von über 1000 Liedern und Gesängen mit Singstimmen und Klavierbegleitung. Leipzig, Litterarisches Verlags-Haus.
!!!page: 230
!!!URL-scan: https://www.digitale-sammlungen.de/en/view/bsb11144622?page=220,221
!!!ENC: Anna Maria Matuszewska
!!!EEV: 2024/07/30
*-	*-
